X: 15413
T: Glen Allen
R: reel
M: 4/4
K: Gmajor
DE|:G2DG EGDE|G2BG AGEG|A2EA FAEA|ABcd edcA|
G2DG EGDE|G2BG AGEG|cBcd efge|1 dBABG2DE:|2 dBABG2Bd||
|:g2dg egde|g2bg ageg|a2ea faea|a2bg agef|
g2dg egde|g2bg ageg|cBcd efge|1 dBABG2Bd:|2 dBABG2||

